!!!OTL: Kern decorations
**kern	**text
*clefG2	.
*k[f#]	.
*G:	.
*M4/4	.
*MM120	.
=1	=1
2aT	2aT
2cct	2cct
=2	=2
2aM	2aM
2ccm	2ccm
=3	=3
2aW	2aW
2aw	2aw
=4	=4
2bs	2bs
2a$	2a$
=5	=5
2cctR	2cctR
2aTR	2aTR
=6	=6
2ao	2ao
2r	2r
=7	=7
4b'	4b'
4a"	4a"
4g`	4g`
4a~	4a~
=8	=8

